X: 1
T: The Handsome Plowboy
M: C|
L: 1/8
N: "collected by J. O'Neill"
B: O'Neill's 1723
R: Hornpipe
Z: "Transcribed by Bob Safranek, rjs:gsp.org"
K: A
E2 | "A"A2A2 AcBA | "E7"G2B2 BdcB | "A"A2A2 Acea | "E7"gfed cBAG | "A"A2A2 AcBA | "E7"G2B2 BdcB |
| "A"Acea "E7"gfed | "A"c2A2 A2 :: ((3efg) | "A"aece aece | "D"afdf afdf | "E7"bgeg bgeg |
| "A"agfe "(E7)"dcBA | "A"ceAe ceAe | "Bm"dfBf dfBf | "E7"cegf edBG | "A"A2c2 A2y2 :|
